src/ui/src/assets/images/help-icon.svg

<svg width="35" height="35" viewBox="0 0 35 35" fill="none" xmlns="http://www.w3.org/2000/svg">
<g id="question-circle 1" clip-path="url(#clip0_82_63)">
<path id="Vector" d="M17.5 32.8125C13.4389 32.8125 9.54408 31.1992 6.67243 28.3276C3.80078 25.4559 2.1875 21.5611 2.1875 17.5C2.1875 13.4389 3.80078 9.54408 6.67243 6.67243C9.54408 3.80078 13.4389 2.1875 17.5 2.1875C21.5611 2.1875 25.4559 3.80078 28.3276 6.67243C31.1992 9.54408 32.8125 13.4389 32.8125 17.5C32.8125 21.5611 31.1992 25.4559 28.3276 28.3276C25.4559 31.1992 21.5611 32.8125 17.5 32.8125ZM17.5 35C22.1413 35 26.5925 33.1563 29.8744 29.8744C33.1563 26.5925 35 22.1413 35 17.5C35 12.8587 33.1563 8.40752 29.8744 5.12563C26.5925 1.84374 22.1413 0 17.5 0C12.8587 0 8.40752 1.84374 5.12563 5.12563C1.84374 8.40752 0 12.8587 0 17.5C0 22.1413 1.84374 26.5925 5.12563 29.8744C8.40752 33.1563 12.8587 35 17.5 35Z" fill="black"/>
<path id="Vector_2" d="M11.4953 12.6569C11.4923 12.7275 11.5038 12.798 11.5291 12.8641C11.5544 12.9301 11.5929 12.9903 11.6422 13.0409C11.6916 13.0915 11.7508 13.1315 11.8162 13.1583C11.8816 13.1852 11.9518 13.1984 12.0225 13.1972H13.8272C14.1291 13.1972 14.3697 12.95 14.4091 12.6503C14.606 11.2153 15.5903 10.1697 17.3447 10.1697C18.8453 10.1697 20.2191 10.92 20.2191 12.7247C20.2191 14.1137 19.401 14.7525 18.1082 15.7237C16.636 16.7934 15.47 18.0425 15.5532 20.0703L15.5597 20.545C15.562 20.6885 15.6206 20.8254 15.7229 20.9261C15.8253 21.0267 15.9631 21.0831 16.1066 21.0831H17.8807C18.0257 21.0831 18.1648 21.0255 18.2673 20.9229C18.3699 20.8204 18.4275 20.6813 18.4275 20.5362V20.3066C18.4275 18.7359 19.0247 18.2787 20.6369 17.0559C21.9691 16.0431 23.3582 14.9187 23.3582 12.5584C23.3582 9.25313 20.5669 7.65625 17.511 7.65625C14.7394 7.65625 11.7032 8.94687 11.4953 12.6569ZM14.9013 25.2634C14.9013 26.4294 15.831 27.2912 17.1107 27.2912C18.4428 27.2912 19.3594 26.4294 19.3594 25.2634C19.3594 24.0559 18.4407 23.2072 17.1085 23.2072C15.831 23.2072 14.9013 24.0559 14.9013 25.2634Z" fill="black"/>
</g>
<defs>
<clipPath id="clip0_82_63">
<rect width="35" height="35" fill="white"/>
</clipPath>
</defs>
</svg>

<?xml version="1.0" encoding="UTF-8"?>
<svg width="35" height="35" fill="none" version="1.1" viewBox="0 0 35 35" xml:space="preserve" xmlns="http://www.w3.org/2000/svg"><path d="m11.495 12.657c-3e-3 0.0706 0.0085 0.1411 0.0338 0.2072 0.0253 0.066 0.0638 0.1262 0.1131 0.1768 0.0494 0.0506 0.1086 0.0906 0.174 0.1174 0.0654 0.0269 0.1356 0.0401 0.2063 0.0389h1.8047c0.3019 0 0.5425-0.2472 0.5819-0.5469 0.1969-1.435 1.1812-2.4806 2.9356-2.4806 1.5006 0 2.8744 0.7503 2.8744 2.555 0 1.389-0.8181 2.0278-2.1109 2.999-1.4722 1.0697-2.6382 2.3188-2.555 4.3466l0.0065 0.4747c0.0023 0.1435 0.0609 0.2804 0.1632 0.3811 0.1024 0.1006 0.2402 0.157 0.3837 0.157h1.7741c0.145 0 0.2841-0.0576 0.3866-0.1602 0.1026-0.1025 0.1602-0.2416 0.1602-0.3867v-0.2296c0-1.5707 0.5972-2.0279 2.2094-3.2507 1.3322-1.0128 2.7213-2.1372 2.7213-4.4975 0-3.3053-2.7913-4.9022-5.8472-4.9022-2.7716 0-5.8078 1.2906-6.0157 5.0006zm3.406 12.606c0 1.166 0.9297 2.0278 2.2094 2.0278 1.3321 0 2.2487-0.8618 2.2487-2.0278 0-1.2075-0.9187-2.0562-2.2509-2.0562-1.2775 0-2.2072 0.8487-2.2072 2.0562z" clip-path="url(#clipPath2)" fill="#000"/><defs><clipPath id="clipPath2"><rect width="35" height="35" fill="#fff"/></clipPath></defs><circle cx="17.5" cy="17.5" r="16.419" fill="none" stroke="#000" stroke-width="2.1624"/></svg>
